X:1765
T:Eddie Smyth's
O:england
R:polka
D:Humdingers: Live in Oslo
M:2/4
L:1/8
K:D
a2 af/a/|ba af|g>g ge|a2 ag|fd de/f/|gf ed|c/B/A Bc|1 de fg:|2 d2 B2||
|:Af fe/f/|gf e=f|fd df|ed BA|Af fe/f/|gf ed|c/B/A Bc|1 d2 B2:|2 de fg||


